!!!COA: Du Fay, Guillaume
!!!CDT: ~1397/08/05/-1474/11/27/
!!!OTL: Hic iocundus sumit mundus
!!!AGN:	Chanson
!!!SCT:	Duf3080
!!!voices:	3
**kern	**kern	**kern
*staff3	*staff2	*staff1
*Ivox	*Ivox	*Ivox
*I"Tenor	*I"Contratenor	*I"Cantus
*I'T	*I'Ct	*I'Ca
*clefGv2	*clefGv2	*clefG2
*k[]	*k[b-]	*k[]
*M3/1	*M3/1	*M3/1
*met(O|)	*met(O|)	*met(O|)
!!incipit: 5
=1-	=1-	=1-
0.r	0.r	0.r
=2	=2	=2
1r	1r	1r
1r	1r	1r
1c	1g	1cc
=3	=3	=3
1.c	1g	0cc
.	0g	.
2d	.	.
1e	.	1b
=4	=4	=4
0f	1.d	1a
.	.	1.dd
.	2c	.
1d	1B-	.
.	.	2cc
=5	=5	=5
2e	1A	1cc
2f	.	.
1g	0G	1.b
1d	.	.
.	.	2a
=6	=6	=6
0c	1.e	1a
.	.	2g
.	2g	2e
1d	2f	1f
.	2e	.
=7	=7	=7
1c	[0.g	1e
0G	.	1d
.	.	1r
=8	=8	=8
0.c	0.g]	1e
.	.	1.e
.	.	2f
=9	=9	=9
1r	0e	1g
1r	.	1.cc
1c	1A	.
.	.	2b
=10	=10	=10
0.d	1G	1b
.	1F	1a
.	1G	2g
.	.	2f
=11	=11	=11
1c	2A	1e
.	1G	.
2B	.	2d
2G	2d	2g
1A	2c	2f#i
.	2Bni	2e
=12	=12	=12
1G	1d	1g
0c	1.e	1r
.	.	2a
.	2d	2b
=13	=13	=13
1B	1d	1g
0A	1.c	1.f#i
.	2Bni	2e
=14	=14	=14
0G	1d	1g
.	1r	0dd
1B	1g	.
=15	=15	=15
1A	1a	1cc
0d	0f	1.b-i
.	.	2a
=16	=16	=16
1c	1e	1a
0B-i	0d	2a
.	.	2b-i
.	.	2g
.	.	2f
=17	=17	=17
0.A;	1e;	0.a;
.	1r	.
.	1e	.
=18	=18	=18
0.d	0f	1r
.	.	1r
.	1d	2a
.	.	2b
=19	=19	=19
0.e	0A	1.cc
.	.	2dd
.	1c	2cc
.	.	2b
=20	=20	=20
0d	0.G	0dd
[1g	.	1dd
=21	=21	=21
1g]	1c	1.ee
0f	1d	.
.	.	2dd
.	1Bni	1dd
=22	=22	=22
1e	1c	1cc
0d	0G	1.b
.	.	2a
=23	=23	=23
0.c	0g	1cc
.	.	1r
.	2e	1cc
.	2f	.
=24	=24	=24
1r	1g	1b
1r	2f	1a
.	2e	.
1A	1c	2a
.	.	2g
=25	=25	=25
1B	1G	0g
0c	1r	.
.	1A	1e
=26	=26	=26
1G	1B-	1d
0F	0A	0a
=27	=27	=27
1G	1d	1g
1c	1e	2a
.	.	1cc
1d	1d	.
.	.	2b
=28	=28	=28
1B	1d	1.g
0A	0c#i	.
.	.	2a
.	.	2f#i
.	.	2e
=29	=29	=29
0.Gl	0.dl	0.gl
==	==	==
*-	*-	*-
!!!RDF**kern: l=long note in original notation
!!!RDF**kern: i=editorial accidental
!!!ENC:	Alejandro Planchart
!!!END:	2012/08/01/
!!!EED:	Alejandro Planchart
!!!EEV:	2012/08/01/
!!!ONB:	Translated from SCORE and edited on 2012/08/01/ by Craig Sapp
!!muse2ps: T^@{OTL}^C^@{COA}?^i2I200v95,95,150Q16
